!!!OTL: Duihua shange
!!!ARE: Asia, China,ÿZhejiang Xianju
!! III, 604
!!!SCT: C2061
!!!YEM: Copyright 1995, estate of Helmut Schaffrath.
**kern
*ICvox
*Ivox
*M2/4
*k[f#c#g#]
*A:
{8.f#
16cc#
8cc#
8b
=1
8b
8cc#
8b
16a
16b
=2
4cc#
8b
16a
16b
=3
2e}
=4
{8f#
8b
8b
16b
16a
=5
8f#
4a
16a
16f#
=6
8e
8f#
8B
8c#
=7
2e}
=8
{8f#
8cc#
8b
16b
16a
=9
8b
16cc#
16a
4b
=10
12cc#
12b
12f#
[4a
=11
2a]}
=12
{8f#
8b
8a
8b
=13
4b
8a
16b
16a
=14
8.a
16b
8a
8f#
=15
8f#
4e}
{16e
16f#
=16
4.a
8b
=17
8f#
4e
8f#
=18
2a}
==
!!!AGN: Shange
!!!AMT: simple duple
!!!AIN: vox
!!!EED: Helmut Schaffrath
!!!EEV: 1.0
*-
!!!ONB: Tied note syntax fixed by Craig Sapp, 2004/05/03/
